packages/core/src/svgs/blp.svg

<svg width="24" height="24" viewBox="0 0 24 24" fill="none" xmlns="http://www.w3.org/2000/svg">
<g clip-path="url(#clip0_31_7156)">
<path d="M0 0H24V24H0V0Z" fill="#F0F3FA"/>
<path d="M3.85718 16.5773C3.86575 17.0015 4.41432 16.8558 4.62432 16.7144H4.71432V17.3487L4.90289 17.5715L5.40004 17.0487V16.6801C5.52004 16.6115 5.76432 16.453 5.76432 16.3801C6.10718 15.3644 6.81861 15.0944 7.12718 15.0858L7.58575 14.5715H8.14718C8.40004 14.443 8.94861 14.4858 9.19289 14.4901L9.90861 13.8687L9.99432 13.5944C10.5429 13.5944 11.1686 13.2858 11.6443 13.2858H12.72C12.9515 13.2858 13.3072 13.3073 13.4743 13.2215C13.4743 13.7958 13.7143 13.9073 13.7143 14.1815C13.7143 14.4044 13.5729 14.5115 13.4743 14.5715H13.7743C13.6843 14.623 13.4657 14.7858 13.3029 14.7858C13.08 14.8501 13.0457 15.5744 13.0586 15.8573H13.4015C13.7529 15.5273 14.4472 14.6744 14.4472 14.4901C14.4472 14.2587 14.1429 14.0615 14.1429 13.4401C14.1429 12.943 14.4215 12.5873 14.5757 12.4287L14.7343 12.5273C14.8243 12.2958 15.0472 11.8415 15.2357 11.8415C15.42 11.8415 15.7157 12.3815 15.8572 12.6515L15.66 12.8573H15.8572C15.8015 12.9815 15.6 13.2215 15.5057 13.2215C15.27 13.2215 15.2272 13.7787 15.2357 14.143C15.6643 13.8515 16.5343 13.4015 16.5343 13.2215C16.5343 13.0458 16.3543 12.7673 16.2857 12.6515V12.0215C16.2857 11.3873 16.1529 11.1944 16.0629 11.143H15.6C15.8743 11.0915 16.1957 9.85726 16.6115 9.85726C16.9457 9.85726 17.0915 10.7915 17.1386 11.203C17.2115 11.3315 17.4472 11.5715 17.7043 11.5715C17.9615 11.5715 18.3043 11.2844 18.4243 11.143V10.7358C18.4243 10.7358 18.5486 10.4615 18.63 10.333V9.94298L18.8443 9.53584V9.22298C18.8915 9.26584 19.02 9.34726 19.1443 9.34726C19.2943 9.34726 19.47 9.18869 19.53 9.05584C19.3497 9.05338 19.1729 9.00581 19.0157 8.91748C18.8585 8.82914 18.7259 8.70285 18.63 8.55012C18.78 8.63584 19.17 8.81584 19.53 8.81584C19.98 8.81584 20.1386 8.45584 20.1386 8.14298C20.0358 8.37441 19.7872 8.57155 19.5986 8.57155C19.4143 8.57155 19.32 8.43441 19.08 8.16869C18.8357 7.90298 18.4372 7.91155 18.2229 7.91155C17.0229 6.48012 15.9857 6.42869 15.7286 6.42869C15.4715 6.42869 15.4886 6.46298 15.1029 6.51441C14.7172 6.56155 14.4343 6.34726 14.1857 6.46298C13.3115 6.96012 12.6772 7.00298 12.2486 7.14869C11.9057 7.26869 11.6357 7.70584 11.5415 7.91155C11.3015 8.26298 10.7186 9.05155 10.3157 9.38584C9.80146 9.81441 9.36432 9.85726 9.00432 9.85726C8.71718 9.85726 8.23289 9.59584 8.02289 9.42869C7.93289 9.42869 7.54289 9.42869 7.39289 9.38584C7.20003 9.33869 6.63861 8.94869 6.63861 8.35298C6.63861 7.87298 6.83575 7.49584 6.96861 7.36726C7.06289 7.40155 7.31146 7.46584 7.58146 7.46584C7.95861 7.46584 8.13861 7.25155 8.14718 7.02869C8.15575 6.88298 8.12146 6.73726 8.09575 6.63869C8.09497 6.72014 8.06843 6.79926 8.01993 6.8647C7.97143 6.93014 7.90345 6.97855 7.82575 7.00298C7.68474 6.90913 7.51941 6.85849 7.35003 6.85726C7.15718 6.85726 6.98146 7.08441 6.91718 7.20869C6.62441 7.51881 6.45127 7.92281 6.42861 8.34869C6.42861 8.95726 6.74575 9.33012 6.96432 9.48012C7.18718 9.63012 7.92432 9.87441 7.92432 10.1744C7.92432 10.6587 7.30289 11.1044 7.28575 11.3315C7.26861 11.5115 7.32861 12.5444 7.38861 13.0158C7.23432 13.1615 6.89146 13.4573 6.74575 13.4573C6.51432 13.4701 6.26575 13.6373 6.20575 13.7958C5.95718 14.5973 5.02718 15.0301 4.72289 15.1501C4.41432 15.2701 4.41432 15.4758 4.33718 15.6215C4.26003 15.7715 3.85718 16.153 3.85718 16.5815V16.5773Z" fill="#1C834C"/>
<path d="M17.2757 7.01123C17.1043 7.44409 16.8471 8.00552 16.7271 8.00552C16.6328 8.00552 16.5814 7.95409 16.53 7.89837C16.4828 7.84694 16.4314 7.79552 16.3457 7.79552C16.26 7.79552 16.23 7.84694 16.2 7.90266C16.17 7.95409 16.14 8.00552 16.0543 8.00552C15.9728 8.00552 15.8786 7.88552 15.7757 7.75694C15.6514 7.60266 15.5186 7.43552 15.39 7.43552C15.2014 7.43552 15.09 7.63266 15.0557 7.72694C14.8714 8.27123 14.4728 9.3598 14.3528 9.3598C14.28 9.3598 14.2543 9.32552 14.2243 9.28694C14.19 9.24409 14.1557 9.20123 14.0571 9.21409C13.98 9.22266 13.9071 9.39409 13.8214 9.58694C13.7143 9.83552 13.59 10.1227 13.4186 10.1227C13.3114 10.1227 13.2471 10.0455 13.1914 9.96409C13.1228 9.87409 13.0543 9.7798 12.9128 9.7798C12.7028 9.7798 12.5871 10.0112 12.5571 10.1227L12.1328 11.1898L11.8157 11.0784C11.6957 11.3784 11.3957 11.9784 11.1514 11.9784C10.8514 11.9784 10.6671 11.6227 10.5086 11.3012C10.3757 11.0441 10.26 10.8212 10.1057 10.8212C9.83141 10.8212 9.72855 11.2198 9.70712 11.4212H9.41569L8.85855 12.6384H8.62284L7.97998 14.5712H8.15141C8.36569 14.4598 8.81141 14.4769 9.08569 14.4855L9.19284 14.4898L9.90855 13.8684L9.99427 13.5941C10.2814 13.5941 10.5857 13.5084 10.8771 13.4312C11.1514 13.3584 11.4128 13.2855 11.6443 13.2855H12.8357C13.0586 13.2855 13.3328 13.2941 13.4786 13.2212C13.4786 13.5641 13.56 13.7355 13.6286 13.8855C13.6714 13.9841 13.7143 14.0698 13.7143 14.1855C13.7143 14.3998 13.5728 14.5112 13.4743 14.5712H13.7743L13.7143 14.6098C13.6071 14.6784 13.44 14.7898 13.3071 14.7898C13.08 14.8498 13.05 15.5741 13.0586 15.8569H13.4014C13.7528 15.5269 14.4471 14.6741 14.4471 14.4898C14.4471 14.4041 14.4043 14.3184 14.3486 14.2155C14.2628 14.0441 14.1428 13.8255 14.1428 13.4398C14.1428 12.9427 14.4214 12.5869 14.5757 12.4284L14.7343 12.5269C14.8243 12.2955 15.0471 11.8412 15.2357 11.8412C15.42 11.8412 15.7157 12.3812 15.8571 12.6512L15.66 12.8569H15.8571C15.8014 12.9812 15.6 13.2212 15.5057 13.2212C15.27 13.2212 15.2271 13.7784 15.2357 14.1427C15.3643 14.0569 15.5271 13.9584 15.6986 13.8555C16.1057 13.6112 16.5343 13.3498 16.5343 13.2212C16.5343 13.0669 16.4014 12.8398 16.32 12.7069L16.2857 12.6512V12.0212C16.2857 11.3869 16.1528 11.1941 16.0628 11.1427H15.6C15.72 11.1212 15.8443 10.8769 15.9857 10.6027C16.17 10.2512 16.3757 9.85694 16.6114 9.85694C16.9457 9.85694 17.0914 10.7912 17.1386 11.2027C17.2114 11.3312 17.4471 11.5712 17.7043 11.5712C17.9614 11.5712 18.3043 11.2841 18.4243 11.1427V10.7355C18.4243 10.7355 18.5486 10.4612 18.63 10.3327V9.94266L18.8443 9.53552V9.22266C18.8914 9.26552 19.02 9.34694 19.1443 9.34694C19.2943 9.34694 19.47 9.18837 19.53 9.05552C19.3497 9.05306 19.1728 9.00549 19.0156 8.91716C18.8584 8.82882 18.7259 8.70253 18.63 8.5498C18.78 8.63552 19.17 8.81552 19.53 8.81552C19.98 8.81552 20.1386 8.45552 20.1386 8.14266C20.0357 8.37409 19.7871 8.57123 19.5986 8.57123C19.44 8.57123 19.3414 8.46409 19.1614 8.26266L19.0757 8.16837C18.8443 7.91123 18.4586 7.91123 18.2443 7.91123H18.2271C17.8928 7.51694 17.5671 7.22552 17.2714 7.01123H17.2757Z" fill="url(#paint0_linear_31_7156)"/>
<path d="M17.1429 6.92139C17.0743 7.09282 16.9886 7.28996 16.9072 7.46567C16.8451 7.59376 16.7735 7.71697 16.6929 7.83424C16.6773 7.81974 16.663 7.80397 16.65 7.7871L16.6415 7.77853C16.5943 7.7271 16.5 7.62853 16.3457 7.62853C16.2726 7.6282 16.2021 7.65579 16.1486 7.70567C16.1057 7.74424 16.08 7.79139 16.0629 7.81282V7.8171L16.0543 7.82996C15.9997 7.77279 15.9482 7.7127 15.9 7.64996L15.87 7.61567C15.8115 7.53924 15.747 7.46758 15.6772 7.40139C15.6086 7.34139 15.51 7.27282 15.3943 7.27282C15.24 7.27282 15.1243 7.34996 15.0515 7.43139C14.9743 7.51282 14.9272 7.60282 14.9057 7.67567C14.8157 7.94567 14.67 8.34853 14.5329 8.68282C14.4692 8.84335 14.3976 9.00068 14.3186 9.15424C14.2947 9.12498 14.2656 9.10029 14.2329 9.08139C14.1732 9.05191 14.1059 9.04144 14.04 9.05139C13.9718 9.06248 13.9105 9.09929 13.8686 9.15424C13.8343 9.19282 13.8086 9.23996 13.7829 9.2871C13.7445 9.36444 13.7088 9.44305 13.6757 9.52282L13.6372 9.60853C13.5977 9.70587 13.5489 9.79916 13.4915 9.8871C13.4762 9.91122 13.4574 9.93289 13.4357 9.95139C13.4305 9.95514 13.4247 9.95804 13.4186 9.95996C13.3972 9.95996 13.3843 9.95567 13.3072 9.85282C13.2429 9.7671 13.1315 9.6171 12.9129 9.6171C12.7457 9.6171 12.6257 9.7071 12.5486 9.80139C12.4715 9.89139 12.4286 9.99424 12.4072 10.0671L12.0429 10.9842L11.7257 10.8728L11.6657 11.0185C11.61 11.16 11.5115 11.3742 11.3957 11.5542C11.34 11.64 11.2843 11.7128 11.2329 11.76C11.1815 11.8114 11.1557 11.8157 11.1515 11.8157C11.0786 11.8157 11.0057 11.7771 10.9243 11.6871C10.8347 11.5749 10.7584 11.4527 10.6972 11.3228L10.65 11.2328C10.5959 11.1211 10.5358 11.0124 10.47 10.9071C10.4272 10.8471 10.3843 10.7871 10.3286 10.74C10.267 10.6856 10.1879 10.6552 10.1057 10.6542C9.87859 10.6542 9.74145 10.8257 9.66859 10.9714C9.62574 11.0614 9.59145 11.1642 9.57431 11.2542H9.31717L8.76002 12.4714H8.50717L7.80859 14.5714H8.14717L8.73431 12.8014H8.96145L9.51859 11.5842H9.85288L9.86574 11.4342C9.87431 11.3485 9.90002 11.22 9.95145 11.1214C10.0029 11.0185 10.0586 10.9842 10.1057 10.9842C10.1057 10.9842 10.1143 10.9842 10.1272 10.9971C10.1486 11.0142 10.1743 11.0442 10.2086 11.0957C10.2635 11.1858 10.3135 11.2788 10.3586 11.3742L10.4143 11.4771C10.4915 11.6228 10.5815 11.7857 10.6929 11.91C10.8043 12.0385 10.9543 12.1457 11.1515 12.1457C11.2757 12.1457 11.3786 12.0728 11.4515 12.0042C11.5286 11.9314 11.6015 11.8328 11.6657 11.7342C11.7557 11.5885 11.8372 11.4214 11.9015 11.2842L12.2229 11.3914L12.7072 10.1785V10.1657C12.72 10.1271 12.75 10.0671 12.7929 10.0157C12.8272 9.96853 12.87 9.9471 12.9129 9.9471C12.9643 9.9471 12.99 9.96853 13.0543 10.0542L13.0672 10.0714C13.1229 10.1442 13.23 10.2857 13.4186 10.2857C13.5729 10.2857 13.6843 10.1742 13.7486 10.0842C13.8215 9.98567 13.8772 9.8571 13.9286 9.74567L13.9715 9.6471C14.0104 9.5595 14.0533 9.4737 14.1 9.38996C14.1086 9.40282 14.1386 9.44139 14.1729 9.4671C14.22 9.50567 14.28 9.5271 14.3529 9.5271C14.4129 9.5271 14.46 9.49282 14.4815 9.47567C14.5029 9.45424 14.5243 9.43282 14.5372 9.41139L14.6272 9.26139C14.6872 9.14139 14.7557 8.98282 14.8286 8.81139C14.9657 8.46853 15.1157 8.0571 15.2057 7.78282C15.2216 7.737 15.2464 7.69476 15.2786 7.65853C15.3172 7.61996 15.3557 7.60282 15.3943 7.60282L15.4115 7.6071L15.4672 7.64996C15.5143 7.69282 15.5657 7.75282 15.6257 7.82567L15.6515 7.85996C15.6943 7.91996 15.75 7.98424 15.7972 8.03139C15.8272 8.06567 15.8615 8.09567 15.9 8.12139C15.9528 8.15915 16.0169 8.17763 16.0817 8.17373C16.1464 8.16983 16.2079 8.14378 16.2557 8.09996C16.2986 8.0571 16.3243 8.01424 16.3372 7.98853V7.98424L16.3543 7.95853C16.3629 7.95853 16.3715 7.9671 16.4186 8.01424V8.01853C16.4743 8.07424 16.5643 8.17282 16.7272 8.17282C16.7932 8.1674 16.8546 8.1367 16.8986 8.0871C16.9372 8.05282 16.9714 8.00996 17.0014 7.96282C17.0614 7.86853 17.13 7.74424 17.1943 7.61139L17.4086 7.11424C17.3226 7.04651 17.2339 6.98217 17.1429 6.92139Z" fill="#4DFFA9"/>
</g>
<defs>
<linearGradient id="paint0_linear_31_7156" x1="14.0614" y1="7.01123" x2="14.0614" y2="15.8569" gradientUnits="userSpaceOnUse">
<stop stop-color="#33C07A"/>
<stop offset="0.77" stop-color="#1D8A4F"/>
</linearGradient>
<clipPath id="clip0_31_7156">
<rect width="24" height="24" fill="white"/>
</clipPath>
</defs>
</svg>

<svg xmlns="http://www.w3.org/2000/svg" width="24" height="24" fill="none" viewBox="0 0 24 24"><g clip-path="url(#a)"><path fill="#F0F3FA" d="M0 0h24v24H0z"/><path fill="#1C834C" d="M3.857 16.577c.009.424.557.279.767.137h.09v.635l.189.223.497-.523v-.369c.12-.069.364-.227.364-.3.343-1.016 1.055-1.286 1.363-1.294l.459-.514h.561c.253-.129.802-.086 1.046-.082l.716-.621.085-.275c.549 0 1.175-.308 1.65-.308h1.076c.231 0 .587.021.754-.064 0 .574.24.685.24.96 0 .222-.141.33-.24.39h.3c-.09.051-.308.214-.471.214-.223.064-.257.788-.244 1.071h.343c.35-.33 1.045-1.183 1.045-1.367 0-.231-.304-.428-.304-1.05 0-.497.278-.853.433-1.011l.158.098c.09-.231.313-.685.502-.685.184 0 .48.54.621.81l-.197.205h.197c-.055.125-.257.365-.351.365-.236 0-.279.557-.27.921.428-.292 1.298-.742 1.298-.921 0-.176-.18-.455-.248-.57v-.63c0-.635-.133-.828-.223-.879H15.6c.274-.052.596-1.286 1.011-1.286.335 0 .48.934.528 1.346.073.129.308.369.565.369.258 0 .6-.288.72-.429v-.407s.125-.275.206-.403v-.39l.214-.407v-.313a.5.5 0 0 0 .3.124c.15 0 .326-.158.386-.291a1.08 1.08 0 0 1-.9-.506c.15.086.54.266.9.266.45 0 .609-.36.609-.673-.103.231-.352.429-.54.429-.185 0-.279-.138-.519-.403-.244-.266-.643-.257-.857-.257-1.2-1.432-2.237-1.483-2.494-1.483s-.24.034-.626.085c-.386.048-.669-.167-.917-.051-.874.497-1.509.54-1.937.686-.343.12-.613.557-.708.763-.24.351-.822 1.14-1.225 1.474-.515.428-.952.471-1.312.471-.287 0-.771-.261-.981-.428-.09 0-.48 0-.63-.043-.193-.047-.754-.437-.754-1.033 0-.48.197-.857.33-.986.094.035.342.099.612.099.378 0 .558-.214.566-.437a1.3 1.3 0 0 0-.051-.39.39.39 0 0 1-.27.364.87.87 0 0 0-.476-.146c-.193 0-.369.227-.433.352a1.8 1.8 0 0 0-.488 1.14c0 .608.317.981.535 1.131.223.15.96.394.96.694 0 .485-.621.93-.638 1.158-.017.18.043 1.212.103 1.684-.155.146-.498.441-.643.441-.232.013-.48.18-.54.339-.249.801-1.179 1.234-1.483 1.354-.309.12-.309.326-.386.471-.077.15-.48.532-.48.96z"/><path fill="url(#b)" d="M17.276 7.011c-.172.433-.429.995-.549.995-.094 0-.146-.052-.197-.108-.047-.051-.099-.102-.184-.102-.086 0-.116.05-.146.107-.03.051-.06.103-.146.103-.081 0-.175-.12-.278-.25-.125-.153-.257-.32-.386-.32-.189 0-.3.197-.334.29-.185.545-.583 1.634-.703 1.634-.073 0-.099-.034-.129-.073-.034-.043-.068-.086-.167-.073-.077.009-.15.18-.236.373-.107.249-.231.536-.402.536-.108 0-.172-.077-.228-.159-.068-.09-.137-.184-.278-.184-.21 0-.326.231-.356.343l-.424 1.067-.317-.112c-.12.3-.42.9-.665.9-.3 0-.484-.355-.642-.677-.133-.257-.249-.48-.403-.48-.275 0-.377.399-.399.6h-.291l-.557 1.217h-.236l-.643 1.933h.171c.215-.111.66-.094.935-.085l.107.004.716-.622.085-.274c.287 0 .592-.086.883-.163.274-.073.536-.145.767-.145h1.192c.223 0 .497.008.643-.065 0 .343.081.515.15.665.042.098.085.184.085.3 0 .214-.141.325-.24.385h.3l-.06.039c-.107.068-.274.18-.407.18-.227.06-.257.784-.248 1.067h.342c.352-.33 1.046-1.183 1.046-1.367 0-.086-.043-.172-.098-.274-.086-.172-.206-.39-.206-.776 0-.497.278-.853.433-1.012l.158.099c.09-.231.313-.686.502-.686.184 0 .48.54.621.81l-.197.206h.197c-.056.124-.257.364-.351.364-.236 0-.279.557-.27.922.128-.086.291-.185.463-.288.407-.244.835-.505.835-.634 0-.154-.133-.381-.214-.514l-.034-.056v-.63c0-.634-.133-.827-.223-.878H15.6c.12-.022.244-.266.386-.54.184-.352.39-.746.625-.746.335 0 .48.934.528 1.346.072.128.308.368.565.368s.6-.287.72-.428v-.408s.125-.274.206-.402v-.39l.214-.407v-.313a.5.5 0 0 0 .3.124c.15 0 .326-.159.386-.291a1.08 1.08 0 0 1-.9-.506c.15.086.54.266.9.266.45 0 .609-.36.609-.673-.103.231-.352.428-.54.428-.159 0-.258-.107-.438-.308l-.085-.095c-.232-.257-.617-.257-.832-.257h-.017a5.5 5.5 0 0 0-.956-.9z"/><path fill="#4DFFA9" d="M17.143 6.921c-.069.172-.154.369-.236.545a3 3 0 0 1-.214.368.4.4 0 0 1-.043-.047l-.008-.008a.4.4 0 0 0-.296-.15.3.3 0 0 0-.197.077c-.043.038-.069.085-.086.107v.004l-.009.013a2 2 0 0 1-.154-.18l-.03-.034a2 2 0 0 0-.193-.215c-.068-.06-.167-.128-.283-.128a.46.46 0 0 0-.342.158.6.6 0 0 0-.146.245c-.09.27-.236.673-.373 1.007a5 5 0 0 1-.214.471.3.3 0 0 0-.086-.073.33.33 0 0 0-.193-.03.27.27 0 0 0-.171.103c-.035.039-.06.086-.086.133a4 4 0 0 0-.107.236l-.039.086q-.06.146-.146.278a.3.3 0 0 1-.055.064l-.017.009c-.022 0-.035-.004-.112-.107-.064-.086-.175-.236-.394-.236a.47.47 0 0 0-.364.184.7.7 0 0 0-.142.266l-.364.917-.317-.111-.06.146a3.3 3.3 0 0 1-.27.535 1 1 0 0 1-.163.206c-.052.051-.077.056-.082.056-.072 0-.145-.039-.227-.129a2 2 0 0 1-.227-.364l-.047-.09a4 4 0 0 0-.18-.326 1 1 0 0 0-.141-.167.34.34 0 0 0-.223-.086c-.227 0-.365.172-.437.317-.043.09-.078.193-.095.283h-.257l-.557 1.217h-.253l-.698 2.1h.338l.587-1.77h.227l.558-1.217h.334l.013-.15a.9.9 0 0 1 .085-.313c.052-.103.108-.137.155-.137 0 0 .008 0 .021.013a.4.4 0 0 1 .082.099q.082.135.15.278l.055.103c.078.146.168.309.279.433.111.129.261.236.459.236.124 0 .227-.073.3-.142.077-.073.15-.171.214-.27.09-.146.171-.313.236-.45l.32.107.485-1.213v-.012a.5.5 0 0 1 .086-.15c.034-.047.077-.069.12-.069.051 0 .077.022.141.107l.013.017c.056.073.163.215.352.215.154 0 .265-.112.33-.202.072-.098.128-.227.18-.338l.043-.099q.057-.132.128-.257a.4.4 0 0 0 .073.077q.07.06.18.06c.06 0 .107-.034.129-.051.02-.022.042-.043.055-.065l.09-.15c.06-.12.129-.278.202-.45.137-.342.287-.754.377-1.028a.4.4 0 0 1 .073-.124q.058-.057.115-.056l.018.004.055.043q.07.066.159.176l.026.034c.042.06.098.124.145.171a.5.5 0 0 0 .103.09.28.28 0 0 0 .356-.021.4.4 0 0 0 .081-.111v-.005l.017-.025c.009 0 .018.008.065.055v.005c.055.055.145.154.308.154a.26.26 0 0 0 .172-.086.6.6 0 0 0 .102-.124 4 4 0 0 0 .193-.352l.215-.497a4 4 0 0 0-.266-.193"/></g><defs><linearGradient id="b" x1="14.061" x2="14.061" y1="7.011" y2="15.857" gradientUnits="userSpaceOnUse"><stop stop-color="#33C07A"/><stop offset=".77" stop-color="#1D8A4F"/></linearGradient><clipPath id="a"><path fill="#fff" d="M0 0h24v24H0z"/></clipPath></defs></svg>
